svg/fluentui-system-icons/ic_fluent_flag_clock_28_filled.svg

<svg width="28" height="28" viewBox="0 0 28 28" fill="none" xmlns="http://www.w3.org/2000/svg">
<path d="M5.5 18H13.4268C14.4564 15.087 17.2345 13 20.5 13C20.8398 13 21.1743 13.0226 21.5021 13.0664L19.8863 10.5L23.8847 4.14961C24.1991 3.65017 23.8402 3 23.25 3H4.75C4.33579 3 4 3.33579 4 3.75V24.25C4 24.6642 4.33579 25 4.75 25C5.16421 25 5.5 24.6642 5.5 24.25V18ZM27 20.5C27 24.0899 24.0899 27 20.5 27C16.9101 27 14 24.0899 14 20.5C14 16.9101 16.9101 14 20.5 14C24.0899 14 27 16.9101 27 20.5ZM20.5 16.5C20.2239 16.5 20 16.7239 20 17V20.5C20 20.7761 20.2239 21 20.5 21H23.5C23.7761 21 24 20.7761 24 20.5C24 20.2239 23.7761 20 23.5 20H21V17C21 16.7239 20.7761 16.5 20.5 16.5Z" fill="#212121"/>
</svg>

<svg xmlns="http://www.w3.org/2000/svg" width="28" height="28"><path d="M5.5 18h7.927a7.503 7.503 0 0 1 8.075-4.934L19.886 10.5l3.999-6.35A.75.75 0 0 0 23.25 3H4.75a.75.75 0 0 0-.75.75v20.5a.75.75 0 0 0 1.5 0V18ZM27 20.5a6.5 6.5 0 1 1-13 0 6.5 6.5 0 0 1 13 0Zm-6.5-4a.5.5 0 0 0-.5.5v3.5a.5.5 0 0 0 .5.5h3a.5.5 0 0 0 0-1H21v-3a.5.5 0 0 0-.5-.5Z"/></svg>
